X: 35879
T: Sandwich Maker, The
R: reel
M: 4/4
K: Amixolydian
e|:{g}B<c{gef}ec {gBG}B2 {gcd}cB|{g}Aaga {fg}fe{g}ce|{g}fa{g}a/{g}a/{g}a {fg}fe{g}cf|{gef}ecaf {gef}ec{g}Be|
{g}B<c{gef}ec {gBG}B2 {gcd}cB|{g}Aaga {fg}fe{g}ce|{g}fa{g}a/{g}a/{g}a {fg}feaf|1 {gef}ec{g}Bc {g}Af{g}ef:|2 {gef}ec{g}B{d}c {G}A3||
|:d|{g}ce{A}ef {gef}ecae|{g}fa{g}af {g}ef{gcd}cB|{g}ce{A}ef {gfg}feaf|{g}eaca {gcd}cB{G}Bd|
{g}ce{A}ef {gef}ecae|{g}fa{g}af {g}ef{gcd}cB|af{e}fa {gfg}feaf|1 {gef}ec{g}B{d}c {G}A3:|2 {gef}ec{g}Bc {g}Af{g}ef||

